X: 1
T: 'G Iomain Nan Gamhna
R: slip jig
M: 9/8
K: Gmajor
dBB B2 A BAG|dBB Bcd efg|dBB B2 A BAG|eAA dBG A2 e|
dBB B2 A BAG|dBB Bcd efg|dBB B2 A BAG|eAA dBG A2 A|
BAB g2 e fed|BAB e/f/g e f2 A|BAB g2 e fed|eAA ABd e2 A|
BAB g2 e fed|BAB e/f/g e f2 f|def gfe fed|eAA ABd efg|

